X: 6037
T: Cape Breton Dream
R: jig
M: 6/8
K: Amajor
|:F|ECA, EAc|BAB cea|f3 fec|ecA BAF|
ECA, EAc|BAB cea|faf fec|ecA A2:|
f/g/|aec aec|fdB fdB|c^Bc aec|BAF FAF|
[1 ECA, EAc|BAB cea|faf fec|ecA A2:|
[2 E^D=D CE=G|F^EF DFA|EGB dcB|cAA A2||

